X:33
T:Vals av Sven Nyhus
R:vals
C:Sven Nyhus
Z:2000 Brian Wilson 
M:3/4
L:1/8
K:D
A,2
P:A
|: "D"DE DC DE | "D"F2 AF AF | "G"G2 BG B2- | "G"~BA "A"AF "D"D2-
| "D"D2 DC DE | "D"F2 AF AF | "A"E2 EG EC |[1 "D"D4 A,2 :|[2 "D"D4 A2- |
P:B
|: "D"A2z f f2 | "D"f2 eg ec | "G"d2 Bd BG | "D"A4 F2
| "D"D2 DF AF | "Em"G2 GE GB | "E"e2 ed B^G| "A"A4 A2-
| "D"A2z f f2 | "D"f2 eg ec | "G"d2 Bd BG | "D"A4 F2
| "D"D2 DF AF | "G"G2 BG BG | "A"A2 fd ec |[1 "D"d4 A2- :|[2 "D"d6 ||
